X:2076
T:Fraoch a's Aitenn
T:Heath and Furze
O:england
B:Joyce, P. W.; "Old Irish Folk Music and Songs"
R:reel
L:1/8
M:C
K:C
Addc ABAG|FGAB c4|Addc ABA^F|GEcE ED D2|
Addc ABAG|FGAB c2 de|fdec dc A^F|GEcE ED D2||
f4 e3 d|cAAB cAAA|f4 e3 d|eaag edde|
fagf egfe|dcAB cdeg|fdec dcA^F|GEcE ED D2||


